svgs/charts/trend-down-01.svg

<svg width="24" height="24" viewBox="0 0 24 24" fill="none" xmlns="http://www.w3.org/2000/svg">
<path d="M22 17L14.1314 9.13137C13.7354 8.73535 13.5373 8.53735 13.309 8.46316C13.1082 8.3979 12.8918 8.3979 12.691 8.46316C12.4627 8.53735 12.2646 8.73535 11.8686 9.13137L9.13137 11.8686C8.73535 12.2646 8.53735 12.4627 8.30902 12.5368C8.10817 12.6021 7.89183 12.6021 7.69098 12.5368C7.46265 12.4627 7.26465 12.2646 6.86863 11.8686L2 7M22 17H15M22 17V10" stroke="#1C1D20" stroke-width="1.5" stroke-linecap="round" stroke-linejoin="round"/>
</svg>

<svg fill="none" xmlns="http://www.w3.org/2000/svg" viewBox="0 0 24 24"><path d="m22 17-7.869-7.869c-.396-.396-.594-.594-.822-.668a1 1 0 0 0-.618 0c-.228.074-.426.272-.822.668L9.13 11.87c-.396.396-.594.594-.822.668a1 1 0 0 1-.618 0c-.228-.074-.426-.272-.822-.668L2 7m20 10h-7m7 0v-7" stroke="#1C1D20" stroke-width="1.5" stroke-linecap="round" stroke-linejoin="round"/></svg>
